X: 1
T: George White's Favorite
R: reel
M: 4/4
L: 1/8
K: Gmaj
|:Bd | eB ~B2 eBdB | AGAB GEDE | GB (3BBB GABd | eBdB A2 Bd |
eB ~B2 eBdB | AGAB GEDE | GABd gedB | AGAB G2 :||
|:de | gede gaba | g2ga gede | dega bgag | eaa^g a2 =ga |
bg (3ege d2 de | gede gaba | (3gag (3fgf (3efe dB | AGAB G2 :||


Tune 718	Setting 25456

